src/assets/icons/brands-logos,simple,twitter.svg

<svg width="48" height="48" viewBox="0 0 48 48" fill="none" xmlns="http://www.w3.org/2000/svg">
<rect opacity="0.2" x="5" y="5" width="38" height="38" rx="4" fill="black"/>
<path d="M37 16.3675C36.0435 16.7691 35.0153 17.0405 33.9364 17.1625C35.0376 16.5377 35.8836 15.5482 36.2817 14.3692C35.251 14.9479 34.1094 15.3679 32.8943 15.5944C31.9214 14.613 30.5351 14 29.0008 14C26.055 14 23.6665 16.2606 23.6665 19.0489C23.6665 19.4446 23.7137 19.83 23.8047 20.1995C19.3715 19.989 15.441 17.9788 12.8101 14.9241C12.3509 15.6698 12.0878 16.5371 12.0878 17.4624C12.0878 19.2141 13.0295 20.7595 14.4608 21.6649C13.5864 21.6387 12.7639 21.4116 12.0448 21.0334C12.0442 21.0545 12.0442 21.0756 12.0442 21.0969C12.0442 23.5432 13.8829 25.5837 16.3231 26.0479C15.8755 26.1633 15.4043 26.2249 14.9178 26.2249C14.5741 26.2249 14.24 26.1932 13.9142 26.1344C14.5931 28.1402 16.563 29.6 18.8973 29.6406C17.0717 30.9949 14.7717 31.8021 12.2724 31.8021C11.8419 31.8021 11.4173 31.7781 11 31.7314C13.3607 33.1641 16.1645 34 19.1769 34C28.9884 34 34.3539 26.3065 34.3539 19.6342C34.3539 19.4153 34.3487 19.1976 34.3384 18.981C35.3805 18.2692 36.2848 17.3801 36.9999 16.3675H37Z" fill="black"/>
</svg>

<svg xmlns="http://www.w3.org/2000/svg" width="48" height="48" fill="none" viewBox="0 0 48 48">
  <rect width="38" height="38" x="5" y="5" fill="#000" opacity=".2" rx="4"/>
  <path fill="#000" d="M37 16.367c-.956.402-1.985.674-3.064.796 1.102-.625 1.948-1.615 2.346-2.794-1.031.579-2.173.999-3.388 1.225A5.47 5.47 0 0029.001 14c-2.946 0-5.335 2.26-5.335 5.049 0 .396.048.781.139 1.15-4.433-.21-8.364-2.22-10.995-5.275a4.821 4.821 0 00-.722 2.538c0 1.752.942 3.297 2.373 4.203a5.542 5.542 0 01-2.416-.632v.064c0 2.446 1.838 4.487 4.278 4.95a5.624 5.624 0 01-2.409.087c.68 2.006 2.649 3.466 4.983 3.507-1.825 1.354-4.125 2.161-6.625 2.161-.43 0-.855-.024-1.272-.07A15.723 15.723 0 0019.177 34c9.811 0 15.177-7.694 15.177-14.366 0-.219-.005-.436-.016-.653A10.535 10.535 0 0037 16.367z"/>
</svg>
